assets/icons/lipstick.svg

<svg width="30" height="30" viewBox="0 0 30 30" fill="none" xmlns="http://www.w3.org/2000/svg">
<path fill-rule="evenodd" clip-rule="evenodd" d="M23.7875 2.99494C26.1141 2.99494 28 4.45865 28 6.26405C28 6.94742 27.7292 7.58185 27.2669 8.10709L27.1226 8.26053L20.5845 14.7837L20.7185 14.9164C20.8062 15.0038 20.8758 15.1076 20.9233 15.2219C20.9708 15.3362 20.9952 15.4587 20.9952 15.5824C20.9952 15.7061 20.9708 15.8285 20.9233 15.9428C20.8758 16.0571 20.8062 16.1609 20.7185 16.2483L17.9108 19.0505C18.2068 19.412 18.3576 19.8702 18.3341 20.3363C18.3106 20.8025 18.1143 21.2433 17.7835 21.5732L12.4455 26.8971C12.095 27.2468 11.679 27.5241 11.2211 27.7134C10.7633 27.9026 10.2725 28 9.77693 28C9.28134 28 8.7906 27.9026 8.33273 27.7134C7.87486 27.5241 7.45884 27.2468 7.10841 26.8971L3.10538 22.9042C2.75493 22.5546 2.47694 22.1395 2.28728 21.6827C2.09762 21.2258 2 20.7362 2 20.2417C2 19.7473 2.09762 19.2577 2.28728 18.8008C2.47694 18.344 2.75493 17.9289 3.10538 17.5793L8.44243 12.2544C8.77324 11.9244 9.2151 11.7288 9.6823 11.7055C10.1495 11.6822 10.6087 11.8329 10.9709 12.1283L13.7795 9.32607C13.9564 9.1496 14.1963 9.05047 14.4465 9.05047C14.6967 9.05047 14.9366 9.1496 15.1135 9.32607L15.2475 9.45879L20.477 4.24121C21.2487 3.48253 22.4441 2.99494 23.7866 2.99494H23.7875ZM27.2179 20.8465C27.2968 20.9252 27.3593 21.0186 27.402 21.1214C27.4447 21.2242 27.4667 21.3344 27.4667 21.4457C27.4667 21.5569 27.4447 21.6671 27.402 21.7699C27.3593 21.8727 27.2968 21.9661 27.2179 22.0448L25.7508 23.5085L27.2179 24.9731C27.2967 25.0518 27.3593 25.1452 27.402 25.248C27.4447 25.3508 27.4666 25.461 27.4666 25.5723C27.4666 25.6835 27.4447 25.7937 27.402 25.8965C27.3593 25.9993 27.2967 26.0927 27.2179 26.1714C27.139 26.2501 27.0454 26.3125 26.9424 26.3551C26.8393 26.3977 26.7289 26.4196 26.6174 26.4196C26.5059 26.4196 26.3954 26.3977 26.2924 26.3551C26.1894 26.3125 26.0957 26.2501 26.0169 26.1714L24.5498 24.7068L23.0818 26.1714C23.003 26.2501 22.9094 26.3125 22.8063 26.3551C22.7033 26.3977 22.5929 26.4196 22.4813 26.4196C22.3698 26.4196 22.2594 26.3977 22.1563 26.3551C22.0533 26.3125 21.9597 26.2501 21.8808 26.1714C21.802 26.0927 21.7394 25.9993 21.6967 25.8965C21.6541 25.7937 21.6321 25.6835 21.6321 25.5723C21.6321 25.461 21.6541 25.3508 21.6967 25.248C21.7394 25.1452 21.802 25.0518 21.8808 24.9731L23.3479 23.5076L21.8808 22.0448C21.802 21.9661 21.7394 21.8727 21.6967 21.7699C21.6541 21.6671 21.6321 21.5569 21.6321 21.4457C21.6321 21.3344 21.6541 21.2242 21.6967 21.1214C21.7394 21.0186 21.802 20.9252 21.8808 20.8465C21.9597 20.7678 22.0533 20.7054 22.1563 20.6629C22.2594 20.6203 22.3698 20.5984 22.4813 20.5984C22.5929 20.5984 22.7033 20.6203 22.8063 20.6629C22.9094 20.7054 23.003 20.7678 23.0818 20.8465L24.5489 22.3102L26.0169 20.8465C26.0957 20.7678 26.1893 20.7054 26.2924 20.6628C26.3954 20.6202 26.5059 20.5983 26.6174 20.5983C26.7289 20.5983 26.8393 20.6202 26.9424 20.6628C27.0454 20.7054 27.139 20.7678 27.2179 20.8465ZM9.68495 13.4216L9.64438 13.4527L4.30733 18.7776C3.9363 19.1478 3.71961 19.6446 3.70088 20.1678C3.68215 20.691 3.86277 21.2019 4.20638 21.5977L4.30733 21.7059L8.31035 25.6998C8.68146 26.07 9.17934 26.2862 9.70377 26.3049C10.2282 26.3236 10.7403 26.1434 11.1369 25.8005L11.2454 25.6998L16.5825 20.3749C16.6117 20.3459 16.6306 20.308 16.6362 20.2672C16.6418 20.2264 16.6339 20.1849 16.6136 20.149L16.5825 20.1086L9.91138 13.4527C9.88224 13.4235 9.84431 13.4047 9.80341 13.3991C9.76251 13.3934 9.7209 13.4014 9.68495 13.4216ZM10.5784 16.381C10.6573 16.4597 10.7198 16.5531 10.7625 16.6559C10.8052 16.7587 10.8272 16.8689 10.8272 16.9802C10.8272 17.0914 10.8052 17.2016 10.7625 17.3044C10.7198 17.4072 10.6573 17.5006 10.5784 17.5793L7.10935 21.0404C7.03049 21.1191 6.93687 21.1815 6.83384 21.2241C6.7308 21.2667 6.62037 21.2886 6.50885 21.2886C6.39733 21.2886 6.28689 21.2667 6.18386 21.2241C6.08083 21.1815 5.98721 21.1191 5.90835 21.0404C5.82949 20.9618 5.76693 20.8683 5.72426 20.7655C5.68158 20.6627 5.65961 20.5526 5.65961 20.4413C5.65961 20.33 5.68158 20.2199 5.72426 20.1171C5.76694 20.0143 5.82949 19.9208 5.90835 19.8422L9.37739 16.381C9.45624 16.3023 9.54985 16.2399 9.65289 16.1973C9.75592 16.1547 9.86636 16.1328 9.97789 16.1328C10.0894 16.1328 10.1999 16.1547 10.3029 16.1973C10.4059 16.2399 10.4995 16.3023 10.5784 16.381ZM14.4474 11.0562L12.1794 13.319L16.7164 17.8457L18.9845 15.5828L14.4474 11.0562ZM19.7977 7.31641L16.4494 10.6561L19.3854 13.5854L23.4573 9.5228C21.7497 9.4202 20.3289 8.52879 19.7977 7.31641ZM6.73858 6.45042C6.81759 6.52911 6.88028 6.62257 6.92305 6.72546C6.96583 6.82835 6.98784 6.93864 6.98784 7.05002C6.98784 7.16141 6.96583 7.2717 6.92305 7.37459C6.88028 7.47748 6.81759 7.57094 6.73858 7.64963L5.9376 8.44878L6.73952 9.247C6.89878 9.40602 6.98821 9.62166 6.98812 9.84646C6.98803 10.0713 6.89844 10.2868 6.73905 10.4457C6.57966 10.6046 6.36353 10.6939 6.13821 10.6938C5.91289 10.6937 5.69684 10.6043 5.53758 10.4453L4.73659 9.64705L3.93655 10.4453C3.85875 10.5284 3.76496 10.5951 3.66077 10.6413C3.55658 10.6876 3.44412 10.7124 3.33011 10.7143C3.2161 10.7162 3.10287 10.6952 2.99718 10.6525C2.89149 10.6098 2.79549 10.5463 2.71493 10.4658C2.63436 10.3853 2.57088 10.2894 2.52825 10.1839C2.48563 10.0784 2.46475 9.96538 2.46685 9.85163C2.46895 9.73789 2.49399 9.62573 2.54048 9.52185C2.58697 9.41796 2.65395 9.32449 2.73744 9.247L3.53653 8.44878L2.73744 7.64869C2.59383 7.48721 2.51742 7.27712 2.52383 7.06133C2.53024 6.84554 2.61897 6.64033 2.77192 6.48762C2.92486 6.33491 3.13046 6.24621 3.34674 6.23965C3.56302 6.23308 3.77365 6.30915 3.93561 6.4523L4.73565 7.2524L5.53758 6.4523C5.69678 6.29366 5.91259 6.20455 6.1376 6.20455C6.36262 6.20455 6.57843 6.29366 6.73763 6.4523L6.73858 6.45042ZM23.7866 4.69021C22.3186 4.69021 21.2733 5.50066 21.2733 6.26405C21.2733 7.02743 22.3186 7.83883 23.7875 7.83883C25.2565 7.83883 26.3018 7.02743 26.3018 6.26405C26.3018 5.5016 25.2565 4.68927 23.7875 4.68927L23.7866 4.69021ZM13.9361 2C14.3114 2 14.6714 2.14876 14.9368 2.41355C15.2022 2.67834 15.3513 3.03747 15.3513 3.41194C15.3513 3.7864 15.2022 4.14554 14.9368 4.41033C14.6714 4.67512 14.3114 4.82387 13.9361 4.82387C13.5608 4.82387 13.2008 4.67512 12.9354 4.41033C12.67 4.14554 12.5209 3.7864 12.5209 3.41194C12.5209 3.03747 12.67 2.67834 12.9354 2.41355C13.2008 2.14876 13.5608 2 13.9361 2Z" fill="#485FC7"/>
</svg>

<svg width="30" height="30" fill="none" xmlns="http://www.w3.org/2000/svg"><path fill-rule="evenodd" clip-rule="evenodd" d="M23.788 2.995C26.114 2.995 28 4.459 28 6.264c0 .683-.27 1.318-.733 1.843l-.144.154-6.539 6.523.134.132a.941.941 0 0 1 0 1.332l-2.807 2.802a1.88 1.88 0 0 1-.128 2.523l-5.338 5.324a3.776 3.776 0 0 1-4.112.816 3.775 3.775 0 0 1-1.225-.816l-4.003-3.993a3.764 3.764 0 0 1-.818-4.103c.19-.457.468-.872.818-1.222l5.337-5.325a1.889 1.889 0 0 1 2.529-.126l2.809-2.802a.944.944 0 0 1 1.334 0l.133.133 5.23-5.218c.772-.758 1.967-1.246 3.31-1.246Zm3.43 17.851a.847.847 0 0 1 0 1.199l-1.467 1.463 1.467 1.465a.849.849 0 0 1 0 1.198.85.85 0 0 1-1.201 0l-1.467-1.464-1.468 1.464a.848.848 0 0 1-1.201 0 .849.849 0 0 1 0-1.198l1.467-1.465-1.467-1.463a.849.849 0 0 1 0-1.199.848.848 0 0 1 1.2 0l1.468 1.464 1.468-1.463a.848.848 0 0 1 1.2 0ZM9.685 13.422l-.04.03-5.338 5.326a2.068 2.068 0 0 0-.1 2.82l.1.108L8.31 25.7a2.078 2.078 0 0 0 2.827.1l.108-.1 5.338-5.325a.188.188 0 0 0 .03-.226l-.03-.04-6.672-6.656a.189.189 0 0 0-.226-.031Zm.893 2.959a.847.847 0 0 1 0 1.198L7.11 21.04a.85.85 0 0 1-1.2-1.198l3.468-3.461a.85.85 0 0 1 1.201 0Zm3.87-5.325-2.269 2.263 4.537 4.527 2.268-2.263-4.537-4.527Zm5.35-3.74-3.349 3.34 2.936 2.93 4.072-4.063c-1.707-.103-3.128-.994-3.66-2.207ZM6.738 6.45a.847.847 0 0 1 0 1.2l-.8.799.802.798a.847.847 0 0 1-.602 1.447.85.85 0 0 1-.6-.249l-.801-.798-.8.798a.85.85 0 0 1-1.397-.923.847.847 0 0 1 .197-.275l.8-.798-.8-.8a.846.846 0 0 1 .61-1.41.85.85 0 0 1 .589.213l.8.8.802-.8a.85.85 0 0 1 1.2 0V6.45Zm17.049-1.76c-1.468 0-2.514.81-2.514 1.574 0 .763 1.046 1.575 2.515 1.575 1.468 0 2.514-.812 2.514-1.575 0-.762-1.046-1.575-2.514-1.575l-.001.001ZM13.937 2a1.417 1.417 0 0 1 1.414 1.412 1.41 1.41 0 0 1-1.415 1.412 1.417 1.417 0 0 1-1.415-1.412A1.41 1.41 0 0 1 13.936 2Z" fill="#485FC7"/></svg>
